style/elvis/src/icons/svg/src/refresh.svg

<svg width="24" height="24" fill="none" xmlns="http://www.w3.org/2000/svg"><path d="M12.723 22.497c-1.385 0-2.737-.271-4.019-.804a.747.747 0 01-.404-.98.748.748 0 01.98-.405 8.924 8.924 0 003.445.689 8.935 8.935 0 006.204-2.489 8.91 8.91 0 002.762-6.283 8.911 8.911 0 00-2.482-6.399 8.892 8.892 0 00-6.483-2.765 8.921 8.921 0 00-6.199 2.485 8.937 8.937 0 00-2.746 5.833c-.14 2 .375 3.948 1.462 5.589v-2.72a.75.75 0 011.5 0v4.5a.75.75 0 01-.75.75h-.238a.364.364 0 01-.096 0H1.493a.75.75 0 010-1.5h2.636a10.467 10.467 0 01-1.822-6.964l.007-.076.019-.197.006-.045A10.54 10.54 0 015.497 4.42a10.465 10.465 0 017.264-2.913c1.385 0 2.738.269 4.019.8a.74.74 0 01.26.18 10.382 10.382 0 013.253 2.301c3.991 4.171 3.844 10.812-.327 14.803a10.43 10.43 0 01-7.241 2.905h-.002v.001z" fill="#1B314B"/></svg>

<svg width="24" height="24" viewBox="0 0 24 24" fill="none" xmlns="http://www.w3.org/2000/svg">
<path d="M12.723 22.497C11.338 22.497 9.986 22.226 8.704 21.693C8.519 21.616 8.375 21.472 8.299 21.287C8.223 21.102 8.223 20.898 8.3 20.713C8.417 20.432 8.689 20.251 8.993 20.251C9.092 20.251 9.189 20.27 9.28 20.308C10.379 20.765 11.537 20.997 12.725 20.997C15.048 20.997 17.251 20.113 18.929 18.508C20.657 16.854 21.638 14.623 21.691 12.225C21.744 9.827 20.862 7.554 19.209 5.826C17.503 4.043 15.201 3.061 12.726 3.061C10.403 3.061 8.201 3.943 6.527 5.546C4.914 7.089 3.939 9.16 3.781 11.379C3.641 13.379 4.156 15.327 5.243 16.968V14.248C5.243 13.834 5.579 13.498 5.993 13.498C6.407 13.498 6.743 13.834 6.743 14.248V18.748C6.743 19.162 6.407 19.498 5.993 19.498H5.755C5.739 19.5 5.724 19.501 5.71 19.501C5.693 19.501 5.676 19.5 5.659 19.498H1.493C1.079 19.498 0.743 19.162 0.743 18.748C0.743 18.334 1.079 17.998 1.493 17.998H4.129C2.871 16.19 2.211 14.015 2.26 11.795C2.265 11.564 2.28 11.322 2.307 11.034L2.314 10.958C2.32 10.892 2.326 10.827 2.333 10.761L2.339 10.716C2.641 8.311 3.761 6.081 5.497 4.42C7.461 2.542 10.041 1.507 12.761 1.507C14.146 1.507 15.499 1.776 16.78 2.307C16.88 2.348 16.968 2.41 17.04 2.487C18.266 3.039 19.36 3.813 20.293 4.788C24.284 8.959 24.137 15.6 19.966 19.591C18.008 21.464 15.436 22.496 12.725 22.496H12.723V22.497Z" fill="black"/>
</svg>
